packages/tokens/icons/filter/size32Px.svg

<svg viewBox="0 0 32 32" fill="none" xmlns="http://www.w3.org/2000/svg" width="1em" height="1em"><path d="M27.2039 6.45999L27.2038 6.45993L27.1976 6.46664L18.0736 16.2602C17.7058 16.6427 17.5 17.1522 17.5 17.6827L17.5 27.5C17.5 28.0809 17.0264 28.5556 16.4375 28.5556L14.5625 28.5555C13.9736 28.5555 13.5 28.0809 13.5 27.5L13.5 17.6827C13.5 17.1522 13.2942 16.6426 12.9264 16.2602L3.8024 6.46659L3.80246 6.46653L3.79609 6.45994C3.60588 6.26313 3.5 6.00108 3.5 5.72886L3.50002 4.55555V4.55555C3.50002 3.97468 3.97362 3.5 4.56252 3.5L26.4375 3.50006C27.0264 3.50006 27.5 3.97475 27.5 4.55562L27.5 5.72892C27.5 6.00114 27.3941 6.26319 27.2039 6.45999Z" stroke="currentColor"/></svg>

<svg xmlns="http://www.w3.org/2000/svg" fill="none" viewBox="0 0 32 32" width="1em" height="1em"><path stroke="currentColor" d="m27.204 6.46-.006.007-9.124 9.793a2.052 2.052 0 0 0-.574 1.423V27.5a1.06 1.06 0 0 1-1.063 1.056h-1.875A1.059 1.059 0 0 1 13.5 27.5v-9.817c0-.53-.206-1.04-.574-1.423L3.802 6.467l-.006-.007a1.052 1.052 0 0 1-.296-.731V4.556A1.06 1.06 0 0 1 4.563 3.5h21.875A1.06 1.06 0 0 1 27.5 4.556v1.173c0 .272-.106.534-.296.731Z"/></svg>
